X: 103
T:Mall Peatly
M:6/8
L:1/8
S:Playford
K:F
d3 f3 | A2 B c>BA| d2 e f>gf| e2 d d3| d3 f3 A2 B cBA| d2 e f>gf e2 d d2 :|
|: e|f>gf cAF| f3 de^f| g>ag edc| g2 f/2e/2 d2 e| f2 g a2 A |^c2 A a2 A| ^c2 A a2 A |^c2 A f2 g| a>fd e>d^c| d3 d2:|

